X: 1392
T: An Seanduine Dóite
R: jig
M: 6/8
K: Dmajor
ABc d>ed|DFA B2 A|ABd e>de|fed B2 A|
ABA Bdd|DFA d2 e|fed B/c/dA|BAF E2 D||
DFA B>AA|DFE F2 E|DEF A>BA|DFD E2 D|
DFA B>AA|BAB d2 e|fed B/c/dA|BAF E2 D||

